X:501
T:
R:vals
S:Efter »Florsen» i Burs.
O:Gotland, Burs
M:3/4
L:1/8
K:G
Bd|g2 f2 Ac|e2 d2 GB|d2 c2 Ac|e2 d2 Bd|g2 f2 Ac|e2 d2 GB|
d2 c2 FA|G4::Bd|d2 c2 Ac|e2 d2 B2|d2 c2 Ac|e2 d2 Bd|
g2 f2 Ac|e2 d2 Bd|d2 c2 FA|G4::(Bc)|d2 b2 a2|g2 B2 d2|
c2 A2 f2|g2 B2 c2|d2 b2 a2|g2 B2 d2|c2 A2 f2|g4::B2|
c2 A2 f2|g2 B2 d2|c2 A2 f2|g2 B2 Bc|d2 b2 a2|g2 B2 d2|
c2 A2 f2|g4:|

